X: 67
T: Requiem / Offertory Domine Jesu Christe
N: Derived from Ock1013e-Requiem-Offertory_Domine_Jesu_Christe.krn
C: Johannes Ockeghem
%%abc-version 2.0
%%abcx-abcm2ps-target-version 5.9.1 (29 Sep 2008)
%%abc-creator hum2abc beta
%%abcx-conversion-date 2019/02/17 07:26:15
%%abc-edited-by Jesse Rodin
%%abc-edited-by Chris Gage 08-27-2012
%%abcx-initial-encoding-date 2012/10/12/
%%humdrum-veritas 4221939546
%%humdrum-veritas-data 2235181713
%%linebreak <none>
%%barnumbers 0
L: 1/4
M: 6/1
Q: 1/2=120
V: 1 clef=treble-8
V: 2 clef=treble-8
V: 3 clef=treble-8
V: 4 clef=bass
V: 5 clef=bass
K: C
[V:1] e8d3ef4g6f2 | 
[V:2] z24 | 
[V:3] E8G4A4B8 | 
[V:4] E,4C,4D,2G,,2C,3D,E,4D,4 | 
[V:5] E,6C,2B,,4A,,4G,,8- | 
[V:1] e4d8f4e4f4- | 
[V:2] z24 | 
[V:3] B8B4A4c4A4 | 
[V:4] G,12F,4G,4z4 | 
[V:5] G,,8z4D,4C,4D,4- | 
[V:1] f4d4e8d6c2- | 
[V:2] z24 | 
[V:3] d4B4c8_B4A4- | 
[V:4] A,4G,12F,4E,4- | 
[V:5] D,4G,,4C,8D,4A,,4- | 
[V:1] c2Bcd4f6e2d8 | 
[V:2] z24 | 
[V:3] A8F2GA_B2A2G2F2G4 | 
[V:4] E,4D,8z4D,8 | 
[V:5] A,,4z2D,8C,2_B,,3G,,B,,4 | 
[V:1] c8z4e8c4 | 
[V:2] z24 | 
[V:3] A8E8A3Bc4 | 
[V:4] E,4(3C,2F,2G,2(3:2:9A,4B,2C4B,2A,4G,2A,2E,2F,2 | 
[V:5] A,,24 | 
[V:1] d4d8d8c4 | 
[V:2] z24 | 
[V:3] B8G4A4z4A4- | 
[V:4] (3:2:4z2G,4G,4F,2D,4(3:2:6F,4G,2_B,2A,4F,2E,4 | 
[V:5] G,,12z4D,4A,,4 | 
[V:1] d8e4d4d4z4 | 
[V:2] z24 | 
[V:3] A4B2d4^c2d4B4G4 | 
[V:4] D,8A,4D,6G,4E,2 | 
[V:5] z24 | 
[V:1] d4e4d2e3cc4B2c4 | 
[V:2] z24 | 
[V:3] A2B2c4G8F4G4- | 
[V:4] F,3E,C,4B,,2C,4E,2D,4C,4 | 
[V:5] z24 | 
[V:1] z2c2d2f4e2d2e3dd4^c2 | 
[V:2] z24 | 
[V:3] G4A4c4B2c3AA4G2 | 
[V:4] E,4D,4A,,4D,2A,,2C,2D,2E,4 | 
[V:5] z24 | 
[V:1] [M:12/1]d4z4z8z8z8z8z8 | 
[V:2] [M:12/1]z48 | 
[V:3] [M:12/1]A4z4z8z8z8z8z8 | 
[V:4] [M:12/1]D,6F,4G,2A,2_B,2A,G,F,2E,4D,4F,6G,2A,4D,4A,4 | 
[V:5] [M:12/1]D,16C,8D,8D,8D,4D,4 | 
[V:1] z48 | 
[V:2] z48 | 
[V:3] z48 | 
[V:4] z2G,2F,2A,3G,A,2_B,A,G,F,F,2E,D,E,4A,,4z4A,,4B,,4A,,2D,4B,,2 | 
[V:5] E,4F,4D,8C,8E,8C,4D,4F,8 | 
[V:1] z8z8z8z8e8c8 | 
[V:2] z48 | 
[V:3] z4z4z4z4z4z4z4z4A16 | 
[V:4] C,2B,,C,D,2F,2E,2A,3G,F,2E,2D,2E,4D,8z8z8 | 
[V:5] E,4D,4A,,6B,,2C,2D,4^C,2D,8z8z8 | 
[V:1] d8f8e8d4e6d2d8^c4 | 
[V:2] z48 | 
[V:3] B8A4d8^c4d4c4B2A2A8G4 | 
[V:4] z8z8z8D,4A,,4C,4D,4E,8 | 
[V:5] z48 | 
[V:1] d16z8g8g8f4e4 | 
[V:2] z48 | 
[V:3] A8z8d24c6B2 | 
[V:4] D,6E,2F,4G,8F,4_B,16A,4G,4 | 
[V:5] z8z8z8G,,8-G,,8A,,4C,4 | 
[V:1] d8c4d8e4c4f4g4e8d4 | 
[V:2] z48 | 
[V:3] A16B4G4c8B8A8- | 
[V:4] F,8E,4F,4G,8A,8E,4G,4F,8 | 
[V:5] D,8A,,4D,4B,,4C,4A,,8z8D,8 | 
[V:1] e16z4c4d4f4f8f4f4- | 
[V:2] z48 | 
[V:3] A16E8F8A8_B8 | 
[V:4] E,12z4A,,8D,12F,8E,2D,2 | 
[V:5] A,,16A,8A,4F,4D,16 | 
[V:1] f4e8d4e8f8d4d8c4 | 
[V:2] z48 | 
[V:3] A8z8z8z8z8A8 | 
[V:4] C,8A,,4z4A,,8A,12F,4E,8 | 
[V:5] A,,8C,4B,,4C,8D,16A,,8 | 
[V:1] d4c2B2A4d6B2^c4d8z4d8d4 | 
[V:2] z48 | 
[V:3] G4A4F4D4A8F4G2A2_B8G8 | 
[V:4] D,4A,,4D,8A,,8A,4F,4G,4D,4z8 | 
[V:5] B,,4C,4D,4F,4E,8D,8G,,8_B,,8 | 
[V:1] c4_B6A2A8G4A8c8d8 | 
[V:2] z48 | 
[V:3] F4G4E4E8D4E8A16 | 
[V:4] z8z8z8C,8E,8F,8 | 
[V:5] A,,4G,,4C,8_B,,8A,,16z8 | 
[V:1] e8e8d8f16e4c4 | 
[V:2] z48 | 
[V:3] B16A12c12B4G4 | 
[V:4] G,12E,4F,4D,6C,2A,,4z4A,4G,4E,4 | 
[V:5] z48 | 
[V:1] d8e8e8e8d8e4f4 | 
[V:2] z48 | 
[V:3] A8B8c8-c8B8c8 | 
[V:4] F,8E,8G,16F,8G,4A,4 | 
[V:5] z8z8C,16D,8C,8 | 
[V:1] g8f4e8d4c4_B4A8c4d4 | 
[V:2] z48 | 
[V:3] d12B4c4A8F8z4F4G4 | 
[V:4] _B,8A,4G,8F,4E,4D,4F,4G,4A,4B,4 | 
[V:5] G,8D,4E,4C,4D,4A,,4z4D,6C,2A,,4G,,4 | 
[V:1] e4f6d2d8^c4d24 ||  
[V:2] z48 ||  
[V:3] c4d2c2A4G4A8A24 ||  
[V:4] A,8D,8E,8D,24 ||  
[V:5] z4D,8_B,,4A,,8D,24 ||  
[V:1]  [K:C] [K:clef=treble-8][M:3/1]z12 | 
[V:2]  [K:C] [K:clef=treble-8][M:3/1]z12 | 
[V:3]  [K:C] [K:clef=treble-8][M:3/1]z12 | 
[V:4]  [K:C] [K:clef=treble-8][M:3/1]D8E4 | 
[V:5]  [K:C] [K:clef=bass][M:3/1]D,6B,,4C,2 | 
[V:1] z4z4d4 | 
[V:2] z12 | 
[V:3] z12 | 
[V:4] F2G4^F2G4 | 
[V:5] D,2B,,2A,,4G,,4 | 
[V:1] d3cBAA4c2- | 
[V:2] z12 | 
[V:3] z12 | 
[V:4] F8E4- | 
[V:5] z2D,6C,2A,,2- | 
[V:1] c2BAG4A4 | 
[V:2] z12 | 
[V:3] z12 | 
[V:4] E2C2D4E4 | 
[V:5] A,,2C,2B,,4A,,4- | 
[V:1] z2c4d2e2de | 
[V:2] z12 | 
[V:3] z12 | 
[V:4] z4E8 | 
[V:5] A,,4z4z4 | 
[V:1] f2efg2e4d2 | 
[V:2] z12 | 
[V:3] z12 | 
[V:4] D4E2G2F4 | 
[V:5] z12 | 
[V:1] e4z2c4Bc | 
[V:2] z12 | 
[V:3] z12 | 
[V:4] E4E8 | 
[V:5] z4A,,8 | 
[V:1] d2e2f2e3dcB | 
[V:2] z12 | 
[V:3] z12 | 
[V:4] D4C3DE2F2- | 
[V:5] B,,4A,,6D,2- | 
[V:1] A2d4^c2d4- | 
[V:2] z12 | 
[V:3] z12 | 
[V:4] FED2E4D4 | 
[V:5] D,2B,,2A,,4z4 | 
[V:1] d4z2d4f2- | 
[V:2] z12 | 
[V:3] z12 | 
[V:4] z4D4D4 | 
[V:5] D,8z4 | 
[V:1] fed2c2e4d2- | 
[V:2] z12 | 
[V:3] z12 | 
[V:4] F4E4G4 | 
[V:5] z12 | 
[V:1] d2cBA4G4 | 
[V:2] z12 | 
[V:3] z12 | 
[V:4] F8G4 | 
[V:5] z12 | 
[V:1] z2g4e2d2f2 | 
[V:2] z12 | 
[V:3] z12 | 
[V:4] G8F4 | 
[V:5] _B,8A,4 | 
[V:1] g2a4g2e2f2- | 
[V:2] z12 | 
[V:3] z12 | 
[V:4] E2D2F2G2A4 | 
[V:5] G,2F,2D,3B,,C,2A,,2 | 
[V:1] f2e4d2e4- | 
[V:2] z12 | 
[V:3] z12 | 
[V:4] G2E2F4E4 | 
[V:5] B,,2C,2D,4A,,4 | 
[V:1] e2g4f2e2c2 | 
[V:2] z12 | 
[V:3] z12 | 
[V:4] z4C4E4 | 
[V:5] E,4z2A,,4C,2 | 
[V:1] d3cA4c4 | 
[V:2] z12 | 
[V:3] z12 | 
[V:4] D4F4E4 | 
[V:5] B,,2D,3C,A,,6 | 
[V:1] d2B2c2A4B2 | 
[V:2] z12 | 
[V:3] z12 | 
[V:4] D4C3DE2F2- | 
[V:5] B,,2G,,2A,,3B,,C,2D,2- | 
[V:1] A2d4^c2d4 ||  
[V:2] z12 ||  
[V:3] z12 ||  
[V:4] F2EDE4D4 ||  
[V:5] D,2B,,2A,,4D,4 ||  
[V:1]  [K:C] [K:clef=treble-8][M:18/2]d3c_BAA2z2d6_B2A2c8A2A4G2 | 
[V:2]  [K:C] [K:clef=treble-8][M:18/2]z36 | 
[V:3]  [K:C] [K:clef=treble-8][M:18/2]A4F4D4G4F2E2G4A4E2F2D4 | 
[V:4]  [K:C] [K:clef=treble-8][M:18/2]D16-D2C6A,4C2D2_B,4 | 
[V:5]  [K:C] [K:clef=bass][M:18/2]D,8_B,,4G,,4z4z8z8 | 
[V:1] [M:30/2]A2c3de4dBc2d4z2e4c2d2e2c2d2c2c4B2c8z2c2d4f2 | 
[V:2] [M:30/2]z60 | 
[V:3] [M:30/2]E6A4G2A4B2c6G2z2G2A2B2A2G6E6z2A8B2 | 
[V:4] [K:clef=bass][M:30/2]A,,8C,2D,2E,2zD,F,2E,3F,G,3E,F,D,C,4B,,2C,2E,2D,4C,6F,4E,2D,2F,4 | 
[V:5] [M:30/2]z4E,2C,2A,,2B,,2A,,2D,4C,8B,,2C,2A,,2G,,2A,,2C,2G,,4G,4A,4D,2A,,2z2D,4 | 
[V:1] [M:6/1]e4g4f4a8g4 | 
[V:2] [M:6/1]z24 | 
[V:3] [M:6/1]c8A8d8 | 
[V:4] [M:6/1]G,6E,2F,4E,4D,8 | 
[V:5] [M:6/1]C,8D,4A,,4_B,,8 | 
[V:1] a2g2e4f4d8^c4 | 
[V:2] z24 | 
[V:3] e4c4_B4A12 | 
[V:4] C,8D,8F,4E,4 | 
[V:5] A,,8z4D,8A,,4 | 
[V:1] d8z8z8 | 
[V:2] z24 | 
[V:3] G8c8B8- | 
[V:4] D,4G,8^F,4G,8 | 
[V:5] _B,,4G,,4A,,8G,,8- | 
[V:1] z4d8c4B2A2B4 | 
[V:2] z24 | 
[V:3] B8A4G8F4 | 
[V:4] G,8F,4E,4D,8 | 
[V:5] G,,8z8z8 | 
[V:1] c4A8F4G8 | 
[V:2] z24 | 
[V:3] G4E8F4D8 | 
[V:4] E,8C,6A,,2_B,,8 | 
[V:5] z24 | 
[V:1] [M:4/2]A4c6d2e4d4z4g4f4d6B2c4d4 | 
[V:2] [M:4/2]z48 | 
[V:3] [M:4/2]E8A8B4c8d8B4A4G4 | 
[V:4] [M:4/2]A,,8C,8D,4E,8D,4F,4G,4E,4D,4 | 
[V:5] [M:4/2]z8E,8F,4G,8A,4D,4z4A,,4_B,,4 | 
[V:1] f4g4a8e4f6d2d8^c4d4f4- | 
[V:2] z48 | 
[V:3] c4d4z4A4c8A24 | 
[V:4] A,4_B,4A,6F,2G,4A,4D,2E,2F,2G,2A,2D,2E,4F,4D,4 | 
[V:5] A,,4G,,4D,8C,4A,,4z4D,8A,,4D,8- | 
[V:1] f2edc4d4e4c16d16 ||  
[V:2] z48 ||  
[V:3] _B4A4_B8A16A16 ||  
[V:4] F,4E,4F,4G,4E,8E,8D,16 ||  
[V:5] D,4A,,4D,4G,,4A,,8A,,8D,16 ||  
[V:1]  [K:C] [K:clef=treble-8][M:3/1]d12 | 
[V:2]  [K:C] [K:clef=treble-8][M:3/1]z12 | 
[V:3]  [K:C] [K:clef=treble-8][M:3/1]A12 | 
[V:4]  [K:C] [K:clef=bass][M:3/1]z12 | 
[V:5]  [K:C] [K:clef=bass][M:3/1]D,6E,2F,4 | 
[V:1] e4f8 | 
[V:2] z12 | 
[V:3] B4c8 | 
[V:4] z12 | 
[V:5] G,4A,8 | 
[V:1] g8f4 | 
[V:2] z12 | 
[V:3] d8c4 | 
[V:4] z12 | 
[V:5] _B,8A,4 | 
[V:1] e2f4d4^c2 | 
[V:2] z12 | 
[V:3] B2c2A2F2G2A2 | 
[V:4] z12 | 
[V:5] G,2A,2D,4E,4 | 
[V:1] d4z4d4 | 
[V:2] z12 | 
[V:3] _B4A2A4G2 | 
[V:4] z12 | 
[V:5] D,6C,2_B,,4 | 
[V:1] c4d4f4- | 
[V:2] z12 | 
[V:3] A4_B3AF4 | 
[V:4] z12 | 
[V:5] A,,4z4z4 | 
[V:1] f4e8 | 
[V:2] z12 | 
[V:3] A2B2c3BG4 | 
[V:4] z12 | 
[V:5] z12 | 
[V:1] f2e2c4d4 | 
[V:2] z12 | 
[V:3] A2c8B2 | 
[V:4] z12 | 
[V:5] z12 | 
[V:1] c8z4 | 
[V:2] z12 | 
[V:3] c12 | 
[V:4] z12 | 
[V:5] z12 | 
[V:1] g6f2g4 | 
[V:2] z12 | 
[V:3] d12 | 
[V:4] z12 | 
[V:5] _B,12 | 
[V:1] a8g4 | 
[V:2] z12 | 
[V:3] D6C2_B,4 | 
[V:4] z12 | 
[V:5] A,4F,4G,4 | 
[V:1] f3de2d4^c2 | 
[V:2] z12 | 
[V:3] A,4A2A4G2 | 
[V:4] z12 | 
[V:5] A,6F,2E,4 | 
[V:1] d4z4d4 | 
[V:2] z12 | 
[V:3] A8G4 | 
[V:4] z12 | 
[V:5] D,4C,2D,4B,,2 | 
[V:1] c4d4e4 | 
[V:2] z12 | 
[V:3] A4G2F2E2A,2 | 
[V:4] z12 | 
[V:5] A,,4B,,4C,4 | 
[V:1] f6d2e3f | 
[V:2] z12 | 
[V:3] z2A4B2c4 | 
[V:4] z12 | 
[V:5] D,8A,,4 | 
[V:1] g3fedd4^c2 | 
[V:2] z12 | 
[V:3] B4A2A4^G2 | 
[V:4] z12 | 
[V:5] G,,4D,2F,2E,4 | 
[V:1] d4z4d4 | 
[V:2] z12 | 
[V:3] A12 | 
[V:4] z12 | 
[V:5] D,8F,4 | 
[V:1] e4f3ec3_B | 
[V:2] z12 | 
[V:3] z4F8 | 
[V:4] z12 | 
[V:5] G,4A,8 | 
[V:1] A2_B4A4G2 | 
[V:2] z12 | 
[V:3] F4E2C2D4 | 
[V:4] z12 | 
[V:5] D,4C,2A,,2_B,,4 | 
[V:1] A2c2d2e4d2- | 
[V:2] z12 | 
[V:3] E4z4E2F2 | 
[V:4] z12 | 
[V:5] A,,4B,,2C,4D,2 | 
[V:1] d2^c2d4f3e | 
[V:2] z12 | 
[V:3] G4A4_B2A2- | 
[V:4] z12 | 
[V:5] E,4D,6F,2- | 
[V:1] dcc4B2c4- | 
[V:2] z12 | 
[V:3] A2G4F2G4- | 
[V:4] z12 | 
[V:5] F,2E,2D,4C,4- | 
[V:1] c4z4g4- | 
[V:2] z12 | 
[V:3] G4c8 | 
[V:4] z12 | 
[V:5] C,4z4E,4- | 
[V:1] g4f4g4 | 
[V:2] z12 | 
[V:3] B2c2d8 | 
[V:4] z12 | 
[V:5] E,4D,2C,2B,,4 | 
[V:1] a6gfe4 | 
[V:2] z12 | 
[V:3] c8A4- | 
[V:4] z12 | 
[V:5] A,,6B,,2C,4 | 
[V:1] z4f8 | 
[V:2] z12 | 
[V:3] A4A2G2A4 | 
[V:4] z12 | 
[V:5] D,4A,,2B,,2A,,2D,2- | 
[V:1] e4d4c3d | 
[V:2] z12 | 
[V:3] B2c2A2B2G3A | 
[V:4] z12 | 
[V:5] D,2C,2F,2G,2E,3F, | 
[V:1] e2d2g4f2e2- | 
[V:2] z12 | 
[V:3] B2A2d4c2B2- | 
[V:4] z12 | 
[V:5] G,2F,2_B,4A,2G,2- | 
[V:1] e2d4c2d2B2 | 
[V:2] z12 | 
[V:3] B2A3FG2A2B2 | 
[V:4] z12 | 
[V:5] G,2F,3D,E,2F,2G,2 | 
[V:1] A2f4e4d2- | 
[V:2] z12 | 
[V:3] c4B2A4F2 | 
[V:4] z12 | 
[V:5] A,2A,,2B,,2C,2D,2F,2 | 
[V:1] d2^c2d8 ||  
[V:2] z12 ||  
[V:3] G4A8 ||  
[V:4] z12 ||  
[V:5] E,4D,8 ||  
[V:1]  [K:C] [K:clef=treble][M:2/1]A8 | 
[V:2]  [K:C] [K:clef=treble][M:2/1]D8 | 
[V:3]  [K:C] [K:clef=treble-8][M:2/1]z8 | 
[V:4]  [K:C] [K:clef=bass][M:2/1]z8 | 
[V:5]  [K:C] [K:clef=bass][M:2/1]z8 | 
[V:1] A4B4 | 
[V:2] D8 | 
[V:3] z8 | 
[V:4] z8 | 
[V:5] z8 | 
[V:1] c6c2 | 
[V:2] A8- | 
[V:3] z8 | 
[V:4] z8 | 
[V:5] z8 | 
[V:1] c4B2A2 | 
[V:2] A4G2F2 | 
[V:3] z8 | 
[V:4] z8 | 
[V:5] z8 | 
[V:1] B8 | 
[V:2] G8- | 
[V:3] z8 | 
[V:4] z8 | 
[V:5] z8 | 
[V:1] z8 | 
[V:2] G8 | 
[V:3] z8 | 
[V:4] z8 | 
[V:5] z8 | 
[V:1] G8 | 
[V:2] E8 | 
[V:3] z8 | 
[V:4] z8 | 
[V:5] z8 | 
[V:1] A4B4 | 
[V:2] F4G4 | 
[V:3] z8 | 
[V:4] z8 | 
[V:5] z8 | 
[V:1] c4d4- | 
[V:2] A4F4 | 
[V:3] z8 | 
[V:4] z8 | 
[V:5] z8 | 
[V:1] d4^c4 | 
[V:2] E8 | 
[V:3] z8 | 
[V:4] z8 | 
[V:5] z8 | 
[V:1] d8- | 
[V:2] D8 | 
[V:3] z8 | 
[V:4] z8 | 
[V:5] z8 | 
[V:1] d4A4- | 
[V:2] z8 | 
[V:3] z8 | 
[V:4] z8 | 
[V:5] z8 | 
[V:1] A4G4 | 
[V:2] C8 | 
[V:3] z8 | 
[V:4] z8 | 
[V:5] z8 | 
[V:1] F8 | 
[V:2] D8 | 
[V:3] z8 | 
[V:4] z8 | 
[V:5] z8 | 
[V:1] E8 | 
[V:2] E8 | 
[V:3] z8 | 
[V:4] z8 | 
[V:5] z8 | 
[V:1] D8 | 
[V:2] F8- | 
[V:3] z8 | 
[V:4] z8 | 
[V:5] z8 | 
[V:1] z4A4- | 
[V:2] F8 | 
[V:3] z8 | 
[V:4] z8 | 
[V:5] z8 | 
[V:1] A4G4 | 
[V:2] E8 | 
[V:3] z8 | 
[V:4] z8 | 
[V:5] z8 | 
[V:1] F4_B4- | 
[V:2] D8- | 
[V:3] z8 | 
[V:4] z8 | 
[V:5] z8 | 
[V:1] B2A2A4- | 
[V:2] D4F4- | 
[V:3] z8 | 
[V:4] z8 | 
[V:5] z8 | 
[V:1] A4G4 | 
[V:2] F4E4 | 
[V:3] z8 | 
[V:4] z8 | 
[V:5] z8 | 
[V:1] F4E2D2 | 
[V:2] D8 | 
[V:3] z8 | 
[V:4] z8 | 
[V:5] z8 | 
[V:1] C8 | 
[V:2] E8 | 
[V:3] z8 | 
[V:4] z8 | 
[V:5] z8 | 
[V:1] F4G2A2 | 
[V:2] D4_B,4 | 
[V:3] z8 | 
[V:4] z8 | 
[V:5] z8 | 
[V:1] _B2A2G2F2 | 
[V:2] A,4D4- | 
[V:3] z8 | 
[V:4] z8 | 
[V:5] z8 | 
[V:1] E8 | 
[V:2] D4^C4 | 
[V:3] z8 | 
[V:4] z8 | 
[V:5] z8 | 
[V:1] D8 |]  
[V:2] D8 |]  
[V:3] z8 |]  
[V:4] z8 |]  
[V:5] z8 |]  



